**kern	**kern	**kern	**kern	**kern	**kern	**kern	**kern	**kern	**kern	**kern	**kern	**kern	**kern	**kern	**kern
*ITrd7c12	*	*	*	*	*	*	*	*ITrd3c5	*ITrd3c5	*	*	*	*	*	*
*	*Icello	*Iviola	*Ivioln	*Ivioln	*Itimpa	*Itromp	*Itromp	*	*	*Ifagot	*Ifagot	*Ioboe	*Ioboe	*Iflt	*Iflt
*Icbass	*I"Violoncello	*I"Viola	*I#2	*I#1	*I"Timpani	*I#2	*I#1	*Icor	*Icor	*I#2	*I#1	*I#2	*I#1	*I#2	*I#1
*I"Basso	*	*	*I"Violino II	*I"Violino I	*	*I"Tromba 2	*I"Tromba 1	*I#2	*I#1	*I"Fagotto 2	*I"Fagotto 1	*I"Oboe 2	*I"Oboe 1	*I"Flauto 2	*I"Flauto 1
*	*	*	*	*	*	*	*	*I"Corno 2	*I"Corno 1	*	*	*	*	*	*
*>[A,B,1. ending,B,2. ending,C,C,D,1. ending,D,2. ending,E]	*>[A,B,1. ending,B,2. ending,C,C,D,1. ending,D,2. ending,E]	*>[A,B,1. ending,B,2. ending,C,C,D,1. ending,D,2. ending,E]	*>[A,B,1. ending,B,2. ending,C,C,D,1. ending,D,2. ending,E]	*>[A,B,1. ending,B,2. ending,C,C,D,1. ending,D,2. ending,E]	*>[A,B,1. ending,B,2. ending,C,C,D,1. ending,D,2. ending,E]	*>[A,B,1. ending,B,2. ending,C,C,D,1. ending,D,2. ending,E]	*>[A,B,1. ending,B,2. ending,C,C,D,1. ending,D,2. ending,E]	*>[A,B,1. ending,B,2. ending,C,C,D,1. ending,D,2. ending,E]	*>[A,B,1. ending,B,2. ending,C,C,D,1. ending,D,2. ending,E]	*>[A,B,1. ending,B,2. ending,C,C,D,1. ending,D,2. ending,E]	*>[A,B,1. ending,B,2. ending,C,C,D,1. ending,D,2. ending,E]	*>[A,B,1. ending,B,2. ending,C,C,D,1. ending,D,2. ending,E]	*>[A,B,1. ending,B,2. ending,C,C,D,1. ending,D,2. ending,E]	*>[A,B,1. ending,B,2. ending,C,C,D,1. ending,D,2. ending,E]	*>[A,B,1. ending,B,2. ending,C,C,D,1. ending,D,2. ending,E]
*>norep[A,B,2. ending,C,D,2. ending,E]	*>norep[A,B,2. ending,C,D,2. ending,E]	*>norep[A,B,2. ending,C,D,2. ending,E]	*>norep[A,B,2. ending,C,D,2. ending,E]	*>norep[A,B,2. ending,C,D,2. ending,E]	*>norep[A,B,2. ending,C,D,2. ending,E]	*>norep[A,B,2. ending,C,D,2. ending,E]	*>norep[A,B,2. ending,C,D,2. ending,E]	*>norep[A,B,2. ending,C,D,2. ending,E]	*>norep[A,B,2. ending,C,D,2. ending,E]	*>norep[A,B,2. ending,C,D,2. ending,E]	*>norep[A,B,2. ending,C,D,2. ending,E]	*>norep[A,B,2. ending,C,D,2. ending,E]	*>norep[A,B,2. ending,C,D,2. ending,E]	*>norep[A,B,2. ending,C,D,2. ending,E]	*>norep[A,B,2. ending,C,D,2. ending,E]
=1	=1	=1	=1	=1	=1	=1	=1	=1	=1	=1	=1	=1	=1	=1	=1
*>A	*>A	*>A	*>A	*>A	*>A	*>A	*>A	*>A	*>A	*>A	*>A	*>A	*>A	*>A	*>A
*staff:11	*staff:11	*staff:12	*staff:13	*staff:14	*staff:15	*staff:16	*staff:16	*staff:17	*staff:17	*staff:18	*staff:18	*staff:19	*staff:19	*staff:20	*staff:20
*clefF4	*clefF4	*clefC3	*clefG2	*clefG2	*clefF4	*clefG2	*clefG2	*clefG2	*clefG2	*clefF4	*clefF4	*clefG2	*clefG2	*clefG2	*clefG2
*k[f#]	*k[f#]	*k[f#]	*k[f#]	*k[f#]	*M3/4	*M3/4	*M3/4	*M3/4	*M3/4	*k[f#]	*k[f#]	*k[f#]	*k[f#]	*k[f#]	*k[f#]
*M3/4	*M3/4	*M3/4	*M3/4	*M3/4	*	*	*	*	*	*M3/4	*M3/4	*M3/4	*M3/4	*M3/4	*M3/4
.	.	.	.	16aaQ	.	.	.	.	.	.	.	.	16aaQ	16aaQ	16aaQ
4r	4r	4r	4r	8gg	4r	4r	4r	4r	4r	4r	4r	4r	8gg	8gg	8gg
.	.	.	.	16ff#	.	.	.	.	.	.	.	.	16ff#	16ff#	16ff#
.	.	.	.	16gg	.	.	.	.	.	.	.	.	16gg	16gg	16gg
=2	=2	=2	=2	=2	=2	=2	=2	=2	=2	=2	=2	=2	=2	=2	=2
4GG'	4G'	4G'	4d' 4b'y	4dd'	4GG	4g'y	4dd'	4B'	4g'y	4G'y	4B'	4b'	4dd'	4dd'	4dd'
4GG'	4G'	4G'	4d' 4b'y	4dd'	4GG	4g'y	4dd'	4B'	4g'y	4G'y	4B'	4b'	4dd'	4dd'	4dd'
.	.	.	.	16eeQ	.	.	.	.	.	.	.	.	16eeQ	16eeQ	16eeQ
4r	4r	4r	4r	8dd	4r	4ryy	4r	4ryy	4r	4ryy	4r	4r	8dd	8dd	8dd
.	.	.	.	16cc#	.	.	.	.	.	.	.	.	16cc#	16cc#	16cc#
.	.	.	.	16dd	.	.	.	.	.	.	.	.	16dd	16dd	16dd
=3	=3	=3	=3	=3	=3	=3	=3	=3	=3	=3	=3	=3	=3	=3	=3
4GG'	4G'	4G'	4d' 4b'y	4b'	4GG	4g'y	4dd'	4g'y	4b'	4B'y	4d'	4g'	4b'	4b'	4b'
4GG'	4G'	4G'	4d' 4b'y	4b'	4GG	4g'y	4dd'	4g'y	4b'	4B'y	4d'	4g'	4b'	4b'	4b'
.	.	.	.	16ccnQ	.	.	.	.	.	.	.	.	16ccnQ	16ccnQ	16ccnQ
4r	4r	4r	4r	8b	4r	4ryy	4r	4ryy	4r	4ryy	4r	4r	8b	8b	8b
.	.	.	.	16a	.	.	.	.	.	.	.	.	16a	16a	16a
.	.	.	.	16g	.	.	.	.	.	.	.	.	16g	16g	16g
=4	=4	=4	=4	=4	=4	=4	=4	=4	=4	=4	=4	=4	=4	=4	=4
2.DD	2.D	2A	2c	8f#'	8D	[2.dd	[2.dd	2d	2a	2A	2c	8f#'	8f#'	8f#'	8f#'
.	.	.	.	8g'	8D	.	.	.	.	.	.	8g'	8g'	8g'	8g'
.	.	.	.	8g#'	8D	.	.	.	.	.	.	8g#'	8g#'	8g#'	8g#'
.	.	.	.	8a'	8D	.	.	.	.	.	.	8a'	8a'	8a'	8a'
.	.	4G	4B	8b-'	8D	.	.	4g	4b	4G	4B	8b-'	8b-'	8b-'	8b-'
.	.	.	.	8bn'	8D	.	.	.	.	.	.	8bn'	8bn'	8bn'	8bn'
=5	=5	=5	=5	=5	=5	=5	=5	=5	=5	=5	=5	=5	=5	=5	=5
4DDD	4DD	4F#	4A	4cc	4D	4dd]	4dd]	4a	4cc	4F#	4A	4cc	4cc	4cc	4cc
4r	4r	4r	4r	4r	4r	4r	4r	4ryy	4r	4ryy	4r	4r	4r	4r	4r
.	.	.	.	16ddQ	.	.	.	.	.	.	.	.	16ddQ	16ddQ	16ddQ
4r	4r	4r	4r	8cc	4r	4r	4r	4ryy	4r	4ryy	4r	4r	8cc	8cc	8cc
.	.	.	.	16b	.	.	.	.	.	.	.	.	16b	16b	16b
.	.	.	.	16cc	.	.	.	.	.	.	.	.	16cc	16cc	16cc
=6	=6	=6	=6	=6	=6	=6	=6	=6	=6	=6	=6	=6	=6	=6	=6
4DD	4D	4A 4f#	4d 4cc	4aa'	4D	4dd	4dd	4d	4a	4F#	4A	4cc	4aa'	4aa	4aa
4DD	4D	4A 4f#	4d 4cc	4aa'	4r	4dd	4dd	4d	4a	4F#	4A	4cc	4aa'	4aa	4aa
.	.	.	.	16ggQ	.	.	.	.	.	.	.	.	16ggQ	16ggQ	16ggQ
4r	4r	4r	4r	8ff#	4r	4r	4r	4ryy	4r	4ryy	4r	4r	8ff#	8ff#	8ff#
.	.	.	.	16ee	.	.	.	.	.	.	.	.	16ee	16ee	16ee
.	.	.	.	16dd	.	.	.	.	.	.	.	.	16dd	16dd	16dd
=7	=7	=7	=7	=7	=7	=7	=7	=7	=7	=7	=7	=7	=7	=7	=7
*staff:1	*staff:1	*staff:2	*staff:3	*staff:4	*staff:5	*staff:6	*staff:6	*staff:7	*staff:7	*staff:8	*staff:8	*staff:9	*staff:9	*staff:10	*staff:10
4DD#	4D#	4f#	4f# 4a	4cc'	2.r	4cc	4cc	4a	4cc	4D#	4D#	4a	4cc'	4cc'	4cc'
4DD#	4D#	4f#	4f# 4a	4cc'	.	4cc	4cc	4a	4cc	4D#	4D#	4a	4cc'	4cc'	4cc'
.	.	.	.	16ccQ	.	.	.	.	.	.	.	.	16ccQ	16ccQ	16ccQ
4EE	4E	4g	4g	8b	.	4g	4g	4g	4b	4E	4E	4g	8b	8b	8b
.	.	.	.	16a	.	.	.	.	.	.	.	.	16a	16a	16a
.	.	.	.	16g	.	.	.	.	.	.	.	.	16g	16g	16g
=8	=8	=8	=8	=8	=8	=8	=8	=8	=8	=8	=8	=8	=8	=8	=8
4CC	4C	4e	4e	8a'	4r	4cc	4ee	4a	4a	4C	4C	8a'	8a'	8a'	8a'
.	.	.	.	8b'	.	.	.	.	.	.	.	8b'	8b'	8b'	8b'
4ryy	4r	4r	4r	8cc'	4r	4ryy	4r	4ryy	4r	4r	4r	8cc'	8cc'	8cc'	8cc'
.	.	.	.	8dd'	.	.	.	.	.	.	.	8dd'	8dd'	8dd'	8dd'
4DD	4DDn	4d	4a 4cc	8ee'	4D	4dd	4dd	4d	4a	4Dn	4Dn	8ee'	8ee'	8ee'	8ee'
.	.	.	.	8ff#'	.	.	.	.	.	.	.	8ff#'	8ff#'	8ff#'	8ff#'
=9	=9	=9	=9	=9	=9	=9	=9	=9	=9	=9	=9	=9	=9	=9	=9
4GGG	4GG	4G	4g 4b	4gg	4GG	4g	4dd	4g	4b	4GG	4GG	4gg	4gg	4gg	4gg
4ryy	4r	4r	4r	4r	4r	4ryy	4r	4ryy	4r	4r	4r	4r	4r	4r	4r
.	.	.	.	16aaQ	.	.	.	.	.	.	.	.	.	.	16aaQ
4ryy	4r	4r	4r	8gg	4r	4ryy	4r	4ryy	4r	48ryy	4g	4r	4r	48ryy	8gg
.	.	.	.	.	.	.	.	.	.	48ryy	.	.	.	48ryy	.
.	.	.	.	.	.	.	.	.	.	48ryy	.	.	.	48ryy	.
.	.	.	.	.	.	.	.	.	.	48ryy	.	.	.	48ryy	.
.	.	.	.	.	.	.	.	.	.	48ryy	.	.	.	48ryy	.
.	.	.	.	.	.	.	.	.	.	48ryy	.	.	.	48ryy	.
.	.	.	.	16ff#	.	.	.	.	.	48ryy	.	.	.	48ryy	16ff#
.	.	.	.	.	.	.	.	.	.	48ryy	.	.	.	48ryy	.
.	.	.	.	.	.	.	.	.	.	48ryy	.	.	.	48ryy	.
.	.	.	.	16gg	.	.	.	.	.	48ryy	.	.	.	48ryy	16gg
.	.	.	.	.	.	.	.	.	.	48ryy	.	.	.	48ryy	.
.	.	.	.	.	.	.	.	.	.	48ryy	.	.	.	48ryy	.
!!WARNING: This measure contained too few data records
=10	=10	=10	=10	=10	=10	=10	=10	=10	=10	=10	=10	=10	=10	=10	=10
4GG	8G	4G 4d 4b	8B'	4dd'	2.r	2.r	2.r	2.r	2.r	2.ryy	4d'	2.r	2.r	2.ryy	4dd'
.	8B'	.	8d'	.	.	.	.	.	.	.	.	.	.	.	.
4r	8G'	4r	8B'	4dd'	.	.	.	.	.	.	4d'	.	.	.	4dd'
.	8B'	.	8d'	.	.	.	.	.	.	.	.	.	.	.	.
.	.	.	.	16eeQ	.	.	.	.	.	.	16eQ	.	.	.	16eeeQ
4r	8G'	4r	8B'	8dd	.	.	.	.	.	.	8d	.	.	.	8ddd
.	8B'	.	8d'	16cc#	.	.	.	.	.	.	16c#	.	.	.	16ccc#
.	.	.	.	16dd	.	.	.	.	.	.	16d	.	.	.	16ddd
=11	=11	=11	=11	=11	=11	=11	=11	=11	=11	=11	=11	=11	=11	=11	=11
4GG	8G	4G 4d 4b	8g	4b'	2.r	2.r	2.r	2.r	2.r	2.ryy	4B'	2.r	2.r	2.ryy	4bb'
.	8B	.	8d	.	.	.	.	.	.	.	.	.	.	.	.
4r	8G	4r	8B	4b'	.	.	.	.	.	.	4B'	.	.	.	4bb'
.	8B	.	8d	.	.	.	.	.	.	.	.	.	.	.	.
.	.	.	.	16ccnQ	.	.	.	.	.	.	16cnQ	.	.	.	16cccnQ
4r	8G	4r	8B	8b	.	.	.	.	.	.	8B	.	.	.	8bb
.	8B	.	8d	16a	.	.	.	.	.	.	16A	.	.	.	16aa
.	.	.	.	16g	.	.	.	.	.	.	16G	.	.	.	16gg
=12	=12	=12	=12	=12	=12	=12	=12	=12	=12	=12	=12	=12	=12	=12	=12
4DD	2A	4d	2c	8f#	2.r	2.r	2.r	2.r	2.r	2.ryy	8F#	2.r	2.r	2.ryy	8ff#
.	.	.	.	8g	.	.	.	.	.	.	8G	.	.	.	8gg
4r	.	4r	.	8g#	.	.	.	.	.	.	8G#	.	.	.	8gg#
.	.	.	.	8a	.	.	.	.	.	.	8A	.	.	.	8aa
4r	4G	4r	4B	8b-	.	.	.	.	.	.	8B-	.	.	.	8bb-
.	.	.	.	8bn	.	.	.	.	.	.	8Bn	.	.	.	8bbn
=13	=13	=13	=13	=13	=13	=13	=13	=13	=13	=13	=13	=13	=13	=13	=13
4DD	4F#	4d	4A	4cc	2.r	2.r	2.r	2.r	2.r	2.ryy	4c	8dd	8ff#	2.ryy	4ccc
.	.	.	.	.	.	.	.	.	.	.	.	8ee	8gg	.	.
4ryy	4r	4r	4r	4r	.	.	.	.	.	.	4r	8ff#	8aa	.	4r
.	.	.	.	.	.	.	.	.	.	.	.	8gg	8bb	.	.
.	.	.	.	16ddQ	.	.	.	.	.	.	16dQ	.	.	.	.
4ryy	4r	4r	4r	8cc	.	.	.	.	.	.	8c	8aa	8ccc	.	4r
.	.	.	.	16b	.	.	.	.	.	.	16B	8gg	8bb	.	.
.	.	.	.	16cc	.	.	.	.	.	.	16c	.	.	.	.
=14	=14	=14	=14	=14	=14	=14	=14	=14	=14	=14	=14	=14	=14	=14	=14
*staff:9	*staff:9	*staff:10	*staff:11	*staff:12	*	*	*	*staff:13	*staff:13	*	*staff:14	*staff:15	*staff:15	*	*staff:16
4DD	8F#	4d	8a	4aa'	2.ryy	2.ryy	2.ryy	2.r	2.r	2.ryy	4a'	4ff#	4aa	2.ryy	4aa'
.	8A	.	8cc	.	.	.	.	.	.	.	.	.	.	.	.
4r	8F#	4r	8a	4aa'	.	.	.	.	.	.	4a'	4ryy	4r	.	4aa'
.	8A	.	8cc	.	.	.	.	.	.	.	.	.	.	.	.
.	.	.	.	16ggQ	.	.	.	.	.	.	16gQ	.	.	.	16ggQ
4r	8F#	4r	8a	8ff#	.	.	.	.	.	.	8f#	4ryy	4r	.	8ff#
.	8A	.	8cc	16ee	.	.	.	.	.	.	16e	.	.	.	16ee
.	.	.	.	16dd	.	.	.	.	.	.	16d	.	.	.	16dd
=15	=15	=15	=15	=15	=15	=15	=15	=15	=15	=15	=15	=15	=15	=15	=15
4DD#	8D#X	4a	8f#	4cc	2.ryy	2.ryy	2.ryy	2.r	2.r	2.ryy	4c'	2.r	2.r	2.ryy	4ccc'
.	8F#	.	8a	.	.	.	.	.	.	.	.	.	.	.	.
4r	8D#	4r	8f#	4cc	.	.	.	.	.	.	4c'	.	.	.	4ccc'
.	8F#	.	8a	.	.	.	.	.	.	.	.	.	.	.	.
.	.	.	.	16ccQ	.	.	.	.	.	.	16cQ	.	.	.	16cccQ
4EE	8E	4g	8g	8b	.	.	.	.	.	.	8B	.	.	.	8bb
.	8G	.	8b	16a	.	.	.	.	.	.	16A	.	.	.	16aa
.	.	.	.	16g	.	.	.	.	.	.	16G	.	.	.	16gg
=16	=16	=16	=16	=16	=16	=16	=16	=16	=16	=16	=16	=16	=16	=16	=16
4CC	4C	4c	4e	8a'	2.ryy	2.ryy	2.ryy	2.r	2.r	2.ryy	8A'	2.r	2.r	2.ryy	8aa'
.	.	.	.	8b'	.	.	.	.	.	.	8B'	.	.	.	8bb'
4ryy	4r	4r	4r	8cc'	.	.	.	.	.	.	8c'	.	.	.	8ccc'
.	.	.	.	8dd'	.	.	.	.	.	.	8d'	.	.	.	8ddd'
4DD	4Dn	4d	4c	8ee'	.	.	.	.	.	.	8e'	.	.	.	8eee'
.	.	.	.	8ff#'	.	.	.	.	.	.	8f#'	.	.	.	8fff#'
=17	=17	=17	=17	=17	=17	=17	=17	=17	=17	=17	=17	=17	=17	=17	=17
4GGG	4GG	4G	4B	4gg	2ryy	2ryy	2ryy	4r	4r	2ryy	4g	4r	4r	2ryy	4ggg
4GG	4G	4r	4r	4r	.	.	.	4r	4r	.	4r	4r	4r	.	4r
=18|:	=18|:	=18|:	=18|:	=18|:	=18|:	=18|:	=18|:	=18|:	=18|:	=18|:	=18|:	=18|:	=18|:	=18|:	=18|:
*>B	*>B	*>B	*>B	*>B	*>B	*>B	*>B	*>B	*>B	*>B	*>B	*>B	*>B	*>B	*>B
*	*	*	*	*	*	*	*	*	*	*staff:14	*	*	*	*staff:16	*
.	16cQ	16cQ	16eeQ	.	.	.	.	.	.	.	.	.	.	.	.
4r	8B	8B	8dd	4gg'	4ryy	4ryy	4ryy	4g	4b	4r	4r	4r	4gg	4r	4r
.	16A	16A	16cc	.	.	.	.	.	.	.	.	.	.	.	.
.	16G	16G	16b	.	.	.	.	.	.	.	.	.	.	.	.
=19	=19	=19	=19	=19	=19	=19	=19	=19	=19	=19	=19	=19	=19	=19	=19
2.r	8A'	8A'	4cc'z	4ggz	2.ryy	2.ryy	2.ryy	4a	4cc	4r	4r	2.r	4gg	2.r	2.r
.	8B'	8B'	.	.	.	.	.	.	.	.	.	.	.	.	.
.	8c'	8c'	4cc'	4ff#	.	.	.	4ryy	4r	4A	4A	.	4ff#	.	.
.	8d'	8d'	.	.	.	.	.	.	.	.	.	.	.	.	.
.	.	.	16ddQ	.	.	.	.	.	.	.	.	.	.	.	.
.	8e'	8e'	8cc	4ff#'	.	.	.	4a	4cc	4A	4A	.	4ff#'	.	.
.	8f#'	8f#'	16b	.	.	.	.	.	.	.	.	.	.	.	.
.	.	.	16a	.	.	.	.	.	.	.	.	.	.	.	.
=20	=20	=20	=20	=20	=20	=20	=20	=20	=20	=20	=20	=20	=20	=20	=20
2r	2g	2g	2bz	4ff#z	2.ryy	2.ryy	2.ryy	4g	4b	4G	4G	4dd	4bbz	4r	4r
.	.	.	.	4ee	.	.	.	4ryy	4r	4g	4g	4ee	4ee	4r	4r
16AQ	16AQ	.	16ccQ	.	.	.	.	.	.	.	.	.	.	.	.
8GG	8G	4r	8b	4ee'	.	.	.	4g	4b	4r	4r	4ee'	4ee'	4ee	4ee
16FF#	16F#	.	16a	.	.	.	.	.	.	.	.	.	.	.	.
16EE	16E	.	16g	.	.	.	.	.	.	.	.	.	.	.	.
=21	=21	=21	=21	=21	=21	=21	=21	=21	=21	=21	=21	=21	=21	=21	=21
*staff:1	*staff:1	*staff:2	*staff:3	*staff:4	*	*	*	*staff:5	*staff:5	*staff:6	*staff:6	*staff:7	*staff:7	*staff:8	*staff:8
8FF#'	8F#'	2.r	4a'z	4eez	2.ryy	2.ryy	2.ryy	4a	4a	4r	4r	4a	4eez	8aa	8aa
8GG'	8G'	.	.	.	.	.	.	.	.	.	.	.	.	8ff#	8ff#
8AA'	8A'	.	4a'	4dd	.	.	.	4r	4r	4F#'	4F#'	4r	4dd	4dd'	4dd'
8BB'	8B'	.	.	.	.	.	.	.	.	.	.	.	.	.	.
.	.	.	16bQ	.	.	.	.	.	.	.	.	.	.	.	.
8C#'	8c#'	.	8a	4dd'	.	.	.	4a	4a	4F#'	4F#'	4r	4dd'	4dd'	4dd'
8D'	8d'	.	16g	.	.	.	.	.	.	.	.	.	.	.	.
.	.	.	16f#	.	.	.	.	.	.	.	.	.	.	.	.
=22	=22	=22	=22	=22	=22	=22	=22	=22	=22	=22	=22	=22	=22	=22	=22
2Ez	2ez	4r	2gz	4ddz	2.ryy	2.ryy	2.ryy	[2.a	[2.a	4Ez	4Ez	4a	4ggz	4ddz	4ddz
.	.	4r	.	4cc#	.	.	.	.	.	4e	4e	4cc#	4cc#	4cc#	4cc#
.	.	.	.	16eeQ	.	.	.	.	.	.	.	.	16eeQ	.	.
4D	4d	4f#	4f#	8dd	.	.	.	.	.	4f#'	4f#'	4dd'	8dd	4dd'	4dd'
.	.	.	.	16cc#	.	.	.	.	.	.	.	.	16cc#	.	.
.	.	.	.	16dd	.	.	.	.	.	.	.	.	16dd	.	.
=23	=23	=23	=23	=23	=23	=23	=23	=23	=23	=23	=23	=23	=23	=23	=23
2C#	2c#	2g	2e	4ee'	2.ryy	2.ryy	2.ryy	2.a_	2.a_	2g	2g	[2.a	4ee'	[2.a	[2.a
.	.	.	.	4ee'	.	.	.	.	.	.	.	.	4ee'	.	.
.	.	16gQ	16gQ	16eeQ	.	.	.	.	.	16gQ	16gQ	.	16eeQ	.	.
4D	4d	8f#	8f#	8dd	.	.	.	.	.	8f#	8f#	.	8dd	.	.
.	.	16e	16e	16cc#	.	.	.	.	.	16e	16e	.	16cc#	.	.
.	.	16f#	16f#	16dd	.	.	.	.	.	16f#	16f#	.	16dd	.	.
=24	=24	=24	=24	=24	=24	=24	=24	=24	=24	=24	=24	=24	=24	=24	=24
2E	2e	2e	2g	4cc#'	2.ryy	2.ryy	2.ryy	4a]	4a]	2e	2e	4a]	4cc#	2.a]	2.a]
.	.	.	.	4cc#'	.	.	.	4r	4r	.	.	4ryy	4r	.	.
.	.	.	.	16eeQ	.	.	.	.	.	16gQ	16gQ	.	.	.	.
4D	4d	4f#	4f#	8dd	.	.	.	4r	4r	8f#	8f#	4ryy	4r	.	.
.	.	.	.	16cc#	.	.	.	.	.	16e	16e	.	.	.	.
.	.	.	.	16dd	.	.	.	.	.	16f#	16f#	.	.	.	.
=25	=25	=25	=25	=25	=25	=25	=25	=25	=25	=25	=25	=25	=25	=25	=25
.	.	.	.	.	.	.	.	.	.	.	.	.	32bbQ	.	.
.	.	.	.	.	.	.	.	.	.	.	.	.	32aaQ	.	.
.	.	.	.	.	.	.	.	.	.	.	.	.	32gg#Q	.	.
2C#	2c#	2g	2e	4ee'	2.ryy	2.ryy	2.ryy	2.r	2.r	2g	2g	2.r	4aa	[2.a	[2.a
.	.	.	.	4ee'	.	.	.	.	.	.	.	.	4r	.	.
.	.	16gQ	16f#Q	16eeQ	.	.	.	.	.	16gQ	16gQ	.	.	.	.
4D	4d	8f#	8f#	8dd	.	.	.	.	.	8f#	8f#	.	4r	.	.
.	.	16e	16e	16cc#	.	.	.	.	.	16e	16e	.	.	.	.
.	.	16f#	16f#	16dd	.	.	.	.	.	16f#	16f#	.	.	.	.
=26	=26	=26	=26	=26	=26	=26	=26	=26	=26	=26	=26	=26	=26	=26	=26
.	.	.	.	.	.	.	.	.	.	.	.	.	32bbQ	.	.
.	.	.	.	.	.	.	.	.	.	.	.	.	32aaQ	.	.
.	.	.	.	.	.	.	.	.	.	.	.	.	32gg#Q	.	.
2E	2e	2e	2g	4cc#'	2.ryy	2.ryy	2.ryy	2.r	2.r	2e	2e	4r	4aa	2a]	2a]
.	.	.	.	4cc#'	.	.	.	.	.	.	.	4r	4r	.	.
.	.	.	.	16ddQ	.	.	.	.	.	.	.	.	.	16ddQ	16ddQ
4r	4r	8g	4r	8cc#	.	.	.	.	.	4r	4r	8g	4r	8cc#	8cc#
.	.	8e	.	16b	.	.	.	.	.	.	.	8e	.	16b	16b
.	.	.	.	16a	.	.	.	.	.	.	.	.	.	16a	16a
=27	=27	=27	=27	=27	=27	=27	=27	=27	=27	=27	=27	=27	=27	=27	=27
*staff:11	*staff:11	*staff:12	*staff:13	*staff:14	*staff:15	*staff:16	*staff:16	*staff:17	*staff:17	*staff:18	*staff:18	*staff:19	*staff:19	*staff:20	*staff:20
2.r	2.r	8d'	4ff#z	4aaz	2.r	2.r	2.r	2.d	2a	2.r	2.r	8d'	4aaz	4aaz	4aaz
.	.	8e'	.	.	.	.	.	.	.	.	.	8e'	.	.	.
.	.	8f#'	4ee	4gg	.	.	.	.	.	.	.	8f#'	4gg	4gg	4gg
.	.	8g'	.	.	.	.	.	.	.	.	.	8g'	.	.	.
.	.	8a'	4dd	4ff#	.	.	.	.	4dd	.	.	8a'	4ff#	4ff#	4ff#
.	.	8b'	.	.	.	.	.	.	.	.	.	8b'	.	.	.
=28	=28	=28	=28	=28	=28	=28	=28	=28	=28	=28	=28	=28	=28	=28	=28
8EE'	8E'	8e'	4ggz	4bbz	2.r	2.r	2.r	4g	4b	4gz	4gz	4e	4bbz	4bbz	4bbz
8FF#'	8F#'	8f#'	.	.	.	.	.	.	.	.	.	.	.	.	.
8GG'	8G'	8g'	4ff#	4aa	.	.	.	4ryy	4r	4f#	4f#	4r	4aa	4aa	4aa
8AA'	8A'	8a'	.	.	.	.	.	.	.	.	.	.	.	.	.
8BB'	8B'	8b'	4ee	4gg	.	.	.	4ryy	4r	4e	4e	4ee	4gg	4gg	4gg
8C#'	8c#'	8cc#'	.	.	.	.	.	.	.	.	.	.	.	.	.
=29	=29	=29	=29	=29	=29	=29	=29	=29	=29	=29	=29	=29	=29	=29	=29
.	.	.	16eeQ	16ggQ	.	.	.	.	.	.	.	16eeQ	16ggQ	16ggQ	16ggQ
4D	4d	4dd	8dd	8ff#	2.r	2.r	2.r	4d	4a	4d	4d	8dd	8ff#	8ff#	8ff#
.	.	.	16cc#	16ee	.	.	.	.	.	.	.	16cc#	16ee	16ee	16ee
.	.	.	16dd	16ff#	.	.	.	.	.	.	.	16dd	16ff#	16ff#	16ff#
4GG	4G	4G	4b'	4gg'	.	.	.	4g	4b	4G	4G	4ee'y	4gg'	4gg'	4gg'
4AA	4A	4A	4cc#'	4ee'	.	.	.	4a	4a	4A	4A	4cc#'y	4ee'	4ee'	4ee'
=30	=30	=30	=30	=30	=30	=30	=30	=30	=30	=30	=30	=30	=30	=30	=30
16eQ	16eQ	.	.	.	.	.	.	.	.	16eQ	16eQ	.	.	.	.
8D	8d	4d	2d 2dd	2d 2dd	4D	2dd	2dd	2d	2a	8d	8d	2dd	2dd	2dd	2dd
16C#	16c#	.	.	.	.	.	.	.	.	16c#	16c#	.	.	.	.
16D	16d	.	.	.	.	.	.	.	.	16d	16d	.	.	.	.
4DD	4D	4r	.	.	4r	.	.	.	.	4D	4D	.	.	.	.
.	.	16gQ	16eeQ	16eeQ	.	.	.	.	.	.	.	.	16eeQ	.	.
4DD	4D	8f#	8dd	8dd	4r	4r	4r	4ryy	4r	4D	4D	4f#	8dd	4ddd	4ddd
.	.	16e	16cc#	16cc#	.	.	.	.	.	.	.	.	16cc#	.	.
.	.	16f#	16dd	16dd	.	.	.	.	.	.	.	.	16dd	.	.
=31	=31	=31	=31	=31	=31	=31	=31	=31	=31	=31	=31	=31	=31	=31	=31
16eQ	16eQ	.	.	.	.	.	.	.	.	16eQ	16eQ	.	.	.	.
8D	8d	2g	2cc#	4ee'	4D	2dd	2dd	2D	2d	8d	8d	2g	4ee'	2ccc#	2ccc#
16C#	16c#	.	.	.	.	.	.	.	.	16c#	16c#	.	.	.	.
16D	16d	.	.	.	.	.	.	.	.	16d	16d	.	.	.	.
4DD	4D	.	.	4ee'	4r	.	.	.	.	4D	4D	.	4ee'	.	.
.	.	.	.	16ggQ	.	.	.	.	.	.	.	.	16ggQ	.	.
4DD	4D	4a	4ccn	8ff#	4r	4r	4r	4ryy	4r	4D	4D	4a	8ff#	4cccn	4cccn
.	.	.	.	16ee	.	.	.	.	.	.	.	.	16ee	.	.
.	.	.	.	16ff#	.	.	.	.	.	.	.	.	16ff#	.	.
=32	=32	=32	=32	=32	=32	=32	=32	=32	=32	=32	=32	=32	=32	=32	=32
16eQ	16eQ	.	.	.	.	.	.	.	.	16eQ	16eQ	.	.	.	.
8D	8d	4b	2b	4gg'	4D	2dd	2dd	2D	2d	8d	8d	2b	4gg'	2bb	2bb
16C#	16c#	.	.	.	.	.	.	.	.	16c#	16c#	.	.	.	.
16D	16d	.	.	.	.	.	.	.	.	16d	16d	.	.	.	.
4DD	4D	4r	.	4gg'	4r	.	.	.	.	4D	4D	.	4gg'	.	.
.	.	.	16ccQ	16aaQ	.	.	.	.	.	.	.	16ccnQ	16aaQ	16cccQ	16cccQ
4DD	4D	4r	8b	8gg#	4r	4r	4r	4ryy	4r	4r	4r	8b	8gg#	8bb	8bb
.	.	.	16a	16ff#	.	.	.	.	.	.	.	16a	16ff#	16aa	16aa
.	.	.	16b	16gg#	.	.	.	.	.	.	.	16b	16gg#	16bb	16bb
=33	=33	=33	=33	=33	=33	=33	=33	=33	=33	=33	=33	=33	=33	=33	=33
*staff:1	*staff:1	*staff:2	*staff:3	*staff:4	*staff:5	*staff:6	*staff:6	*staff:7	*staff:7	*staff:8	*staff:8	*staff:9	*staff:9	*staff:10	*staff:10
16eQ	16eQ	.	.	.	.	.	.	.	.	.	.	.	.	.	.
8D	8d	4r	4cc	4aa'	4D	2dd	2dd	2D	2d	4r	4r	4cc'	4aa'	4ccc'	4ccc'
16C#	16c#	.	.	.	.	.	.	.	.	.	.	.	.	.	.
16D	16d	.	.	.	.	.	.	.	.	.	.	.	.	.	.
.	.	16dQ	16bQ	16ggnQ	.	.	.	.	.	16dQ	16dQ	16bQ	16ggnQ	16bbQ	16bbQ
4DD	4D	8cn	8a	8ff#	4r	.	.	.	.	8cn	8cn	8a	8ff#	8aa	8aa
.	.	16B	16g	16ee	.	.	.	.	.	16B	16B	16g	16ee	16gg	16gg
.	.	16c	16a	16ff#	.	.	.	.	.	16c	16c	16a	16ff#	16aa	16aa
16eQ	16eQ	.	.	.	.	.	.	.	.	.	.	.	.	.	.
8D	8d	4B'	4b'	4gg'	4r	4r	4r	4ryy	4r	4B'	4B'	4b'	4gg'	4bb'	4bb'
16C#	16c#	.	.	.	.	.	.	.	.	.	.	.	.	.	.
16D	16d	.	.	.	.	.	.	.	.	.	.	.	.	.	.
=34	=34	=34	=34	=34	=34	=34	=34	=34	=34	=34	=34	=34	=34	=34	=34
4DD	4D	4g	2.g	4ee	4D	2dd	2dd	2D	2d	4g	4g	2.g	4ee	4gg	4gg
16eQ	16eQ	.	.	.	.	.	.	.	.	.	.	.	.	.	.
8D	8d	4e	.	4cc#	4r	.	.	.	.	4e	4e	.	4cc#	4eee	4eee
16C#	16c#	.	.	.	.	.	.	.	.	.	.	.	.	.	.
16D	16d	.	.	.	.	.	.	.	.	.	.	.	.	.	.
4DD	4D	4c#	.	4a	4r	4r	4r	4ryy	4r	4c#	4c#	.	4a	4ccc#	4ccc#
=35	=35	=35	=35	=35	=35	=35	=35	=35	=35	=35	=35	=35	=35	=35	=35
8D	8d	4d	2f#	4dd'	4D	2dd	2dd	2.D	[2.d	2d	2d	4f#'	4dd'	4ddd'	4ddd'
8DD	8D	.	.	.	.	.	.	.	.	.	.	.	.	.	.
8D	8d	4a	.	4dd'	4r	.	.	.	.	.	.	4a'	4dd'	4ddd'	4ddd'
8DD	8D	.	.	.	.	.	.	.	.	.	.	.	.	.	.
.	.	.	.	16ddQ	.	.	.	.	.	.	.	.	16ddQ	16dddQ	16dddQ
8D	8d	4e	4g	8cc#	4r	4r	4r	.	.	4e	4e	4a	8cc#	8ccc#	8ccc#
8DD	8D	.	.	16b	.	.	.	.	.	.	.	.	16b	16bb	16bb
.	.	.	.	16a	.	.	.	.	.	.	.	.	16a	16aa	16aa
=36	=36	=36	=36	=36	=36	=36	=36	=36	=36	=36	=36	=36	=36	=36	=36
8D	8d	4f#	2f#	4dd'	4D	2dd	2dd	2.D	2.d_	2d	2d	2.a	4dd'	4ddd'	4ddd'
8DD	8D	.	.	.	.	.	.	.	.	.	.	.	.	.	.
8D	8d	4a	.	4dd'	4r	.	.	.	.	.	.	.	4dd'	4ddd'	4ddd'
8DD	8D	.	.	.	.	.	.	.	.	.	.	.	.	.	.
.	.	.	.	16ddQ	.	.	.	.	.	.	.	.	16ddQ	16dddQ	16dddQ
8D	8d	4e	4g	8cc#	4r	4r	4r	.	.	4e	4e	.	8cc#	8ccc#	8ccc#
8DD	8D	.	.	16b	.	.	.	.	.	.	.	.	16b	16bb	16bb
.	.	.	.	16a	.	.	.	.	.	.	.	.	16a	16aa	16aa
=37	=37	=37	=37	=37	=37	=37	=37	=37	=37	=37	=37	=37	=37	=37	=37
[2.D	[2.d	2.f#	2.f#	2dd	4D	4dd	4dd	4D	4d]	4d	4d	4a	4dd	2ddd	2ddd
.	.	.	.	.	4r	4r	4r	4ryy	4r	4r	4r	4ryy	4r	.	.
.	.	.	.	4ccn	4r	4r	4r	4ryy	4r	4r	4r	4ryy	4r	4cccn	4cccn
=38	=38	=38	=38	=38	=38	=38	=38	=38	=38	=38	=38	=38	=38	=38	=38
2.D]	2.d]	2.fn	2.fn	4b'	2.r	2.r	2.r	2.r	2.r	2.r	2.r	2.r	2.r	2.ryy	4bb'
.	.	.	.	4b'	.	.	.	.	.	.	.	.	.	.	4bb'
.	.	.	.	16aQ	.	.	.	.	.	.	.	.	.	.	16aaQ
.	.	.	.	8g#	.	.	.	.	.	.	.	.	.	.	8gg#
.	.	.	.	16f#	.	.	.	.	.	.	.	.	.	.	16ff#
.	.	.	.	16g#	.	.	.	.	.	.	.	.	.	.	16gg#
=39	=39	=39	=39	=39	=39	=39	=39	=39	=39	=39	=39	=39	=39	=39	=39
4C#	4c#	4e	4e	4a'	2.r	2.r	2.r	2.r	2.r	2.r	2.r	2.r	2.r	2.ryy	4aa'
2C	2cn	2e-	2e-	4a'	.	.	.	.	.	.	.	.	.	.	4aa'
.	.	.	.	16gnQ	.	.	.	.	.	.	.	.	.	.	16ggnQ
.	.	.	.	8f#	.	.	.	.	.	.	.	.	.	.	8ff#
.	.	.	.	16e	.	.	.	.	.	.	.	.	.	.	16ee
.	.	.	.	16f#	.	.	.	.	.	.	.	.	.	.	16ff#
=40	=40	=40	=40	=40	=40	=40	=40	=40	=40	=40	=40	=40	=40	=40	=40
*staff:11	*staff:11	*staff:12	*staff:13	*staff:14	*staff:15	*staff:16	*staff:16	*staff:17	*staff:17	*staff:18	*staff:18	*staff:19	*staff:19	*	*staff:20
4BB	4B	2d	2d	[4g	2.r	2.r	2.r	2.r	2.r	2.r	2.r	2.r	2.r	2.ryy	[4gg
4BB-	4B-	.	.	12g]	.	.	.	.	.	.	.	.	.	.	12gg]
.	.	.	.	12a	.	.	.	.	.	.	.	.	.	.	12aa
.	.	.	.	12g	.	.	.	.	.	.	.	.	.	.	12gg
4AA	4A	4cn	4cn	12fn	.	.	.	.	.	.	.	.	.	.	12ffn
.	.	.	.	12g	.	.	.	.	.	.	.	.	.	.	12gg
.	.	.	.	12f	.	.	.	.	.	.	.	.	.	.	12ff
=41	=41	=41	=41	=41	=41	=41	=41	=41	=41	=41	=41	=41	=41	=41	=41
4GG	4G	4B-	4B-	12e-	2.r	2.r	2.r	2.r	2.r	2.r	2.r	2.r	2.r	2.ryy	12ee-
.	.	.	.	12fn	.	.	.	.	.	.	.	.	.	.	12ffn
.	.	.	.	12e-	.	.	.	.	.	.	.	.	.	.	12ee-
4FF	4Fn	4A	4A	12d	.	.	.	.	.	.	.	.	.	.	12dd
.	.	.	.	12e-	.	.	.	.	.	.	.	.	.	.	12ee-
.	.	.	.	12d	.	.	.	.	.	.	.	.	.	.	12dd
4EE-	4E-	4G	4G	4c#	.	.	.	.	.	.	.	.	.	.	4cc#
=42	=42	=42	=42	=42	=42	=42	=42	=42	=42	=42	=42	=42	=42	=42	=42
4DD	4D	2F#	4d	4d	2.r	2.r	2.r	2.r	2.r	2.r	2.r	2.r	2.r	2.ryy	4dd
4DD	4D	.	4r	4r	.	.	.	.	.	.	.	.	.	.	4r
16FnQ	16FFnQ	.	.	.	.	.	.	.	.	.	.	.	.	.	.
8EE-X	8EE-	4G	4c#	4g	.	.	.	.	.	.	.	.	.	.	4gg
16DD	16DD	.	.	.	.	.	.	.	.	.	.	.	.	.	.
16EE-	16EE-	.	.	.	.	.	.	.	.	.	.	.	.	.	.
=43	=43	=43	=43	=43	=43	=43	=43	=43	=43	=43	=43	=43	=43	=43	=43
4DD'	4DD'	4d	4d	4f#X	2.r	2.r	2.r	2.r	2.r	2.r	2.r	2.r	2.r	2.ryy	4ff#X
4DD'	4DD'	4r	4r	4r	.	.	.	.	.	.	.	.	.	.	4r
16FnQ	16FFnQ	.	.	.	.	.	.	.	.	.	.	.	.	.	.
8EE-X	8EE-	4r	4g	4cc#	.	.	.	.	.	.	.	.	.	.	4ccc#
16DD	16DD	.	.	.	.	.	.	.	.	.	.	.	.	.	.
16EE-	16EE-	.	.	.	.	.	.	.	.	.	.	.	.	.	.
=44	=44	=44	=44	=44	=44	=44	=44	=44	=44	=44	=44	=44	=44	=44	=44
4DD'	4DD'	4r	4f#	4dd	2.r	2.r	2.r	2.r	2.r	2.r	2.r	4r	4r	2.ryy	4ddd
4DD'	4DD'	4r	4r	4r	.	.	.	.	.	.	.	4r	4r	.	4r
.	.	16aQ	.	16aaQ	.	.	.	.	.	.	.	16aaQ	16aaQ	.	.
4r	4ryy	8g	4r	8gg	.	.	.	.	.	.	.	8gg	8gg	.	4r
.	.	16f#	.	16ff#	.	.	.	.	.	.	.	16ff#	16ff#	.	.
.	.	16g	.	16gg	.	.	.	.	.	.	.	16gg	16gg	.	.
=45	=45	=45	=45	=45	=45	=45	=45	=45	=45	=45	=45	=45	=45	=45	=45
*	*	*	*	*	*	*	*	*	*	*	*	*	*	*staff:20	*
4GG'	8G'	4d'	8B'	4dd'	4GG'	4g'y	4dd'	4g'y	4b'	2.B	[2.d	4dd'	4dd'	4r	4r
.	8B'	.	8d'	.	.	.	.	.	.	.	.	.	.	.	.
4GG'	8G'	4d'	8B'	4dd'	4GG'	4g'y	4dd'	4g'y	4b'	.	.	4dd'	4dd'	4r	4r
.	8B'	.	8d'	.	.	.	.	.	.	.	.	.	.	.	.
.	.	16eQ	.	16eeQ	.	.	.	.	.	.	.	16eeQ	16eeQ	16eeeQ	16eeeQ
4r	8G'	8d	8B'	8dd	4r	4ryy	4r	4ryy	4r	.	.	8dd	8dd	8ddd	8ddd
.	8B'	16c#	8d'	16cc#	.	.	.	.	.	.	.	16cc#	16cc#	16ccc#	16ccc#
.	.	16d	.	16dd	.	.	.	.	.	.	.	16dd	16dd	16ddd	16ddd
=46	=46	=46	=46	=46	=46	=46	=46	=46	=46	=46	=46	=46	=46	=46	=46
*staff:1	*staff:1	*staff:2	*staff:3	*staff:4	*staff:5	*staff:6	*staff:6	*staff:7	*staff:7	*staff:8	*staff:8	*staff:9	*staff:9	*staff:10	*staff:10
4GG'	8G	4B'	8g	4b'	4GG	4g'y	4dd'	4B'	4g'y	2.B	2.d]	4b'	4b'	4bb'	4bb'
.	8B	.	8d	.	.	.	.	.	.	.	.	.	.	.	.
4GG'	8G	4B'	8B	4b'	4GG	4g'y	4dd'	4B'	4g'y	.	.	4b'	4b'	4bb'	4bb'
.	8B	.	8d	.	.	.	.	.	.	.	.	.	.	.	.
.	.	16cnQ	.	16ccnQ	.	.	.	.	.	.	.	16ccnQ	16ccnQ	16cccnQ	16cccnQ
4r	8G	8B	8B	8b	4r	4ryy	4r	4ryy	4r	.	.	8b	8b	8bb	8bb
.	8B	16A	8d	16a	.	.	.	.	.	.	.	16a	16a	16aa	16aa
.	.	16G	.	16g	.	.	.	.	.	.	.	16g	16g	16gg	16gg
=47	=47	=47	=47	=47	=47	=47	=47	=47	=47	=47	=47	=47	=47	=47	=47
2.DD	2A	2A	2c	8f#'	4D	[2.dd	2.dd	2d	2a	2A	2c	4f#	4f#	8ff#'	8ff#'
.	.	.	.	8g'	.	.	.	.	.	.	.	.	.	8gg'	8gg'
.	.	.	.	8g#'	8D	.	.	.	.	.	.	4r	4r	8gg#'	8gg#'
.	.	.	.	8a'	8D	.	.	.	.	.	.	.	.	8aa'	8aa'
.	4G	4G	4B	8b-'	8D	.	.	4g	4b	4G	4B	4r	4r	8bb-'	8bb-'
.	.	.	.	8bn'	8D	.	.	.	.	.	.	.	.	8bbn'	8bbn'
=48	=48	=48	=48	=48	=48	=48	=48	=48	=48	=48	=48	=48	=48	=48	=48
4DDD	4F#	4F#	4A	4cc	4D	4dd]	4dd	2.d	2.a	4F#	4A	8dd'y	8ff#'	4ccc	4ccc
.	.	.	.	.	.	.	.	.	.	.	.	8ee'y	8gg'	.	.
4r	2ryy	4r	4r	4r	4r	4ryy	4r	.	.	4ryy	4r	8ff#'y	8aa'	4r	4r
.	.	.	.	.	.	.	.	.	.	.	.	8gg'y	8bb'	.	.
.	.	.	.	16ddQ	.	.	.	.	.	.	.	.	.	.	.
4r	.	4r	4r	8cc	4r	4ryy	4r	.	.	4ryy	4r	8aa'y	8ccc'	4r	4r
.	.	.	.	16b	.	.	.	.	.	.	.	8gg'y	8bb'	.	.
.	.	.	.	16cc	.	.	.	.	.	.	.	.	.	.	.
=49	=49	=49	=49	=49	=49	=49	=49	=49	=49	=49	=49	=49	=49	=49	=49
4DD	8D	8F#	4d 4cc	4aa'	4D	[2.dd	2.dd	4d	4a	8F#	8F#	4ff#	4aa	4r	4r
.	8E	8G	.	.	.	.	.	.	.	8G	8G	.	.	.	.
4DD	8F#	8A	4d 4cc	4aa'	8D	.	.	4d	4a	8A	8A	4ryy	4r	4r	4r
.	8G	8B	.	.	8D	.	.	.	.	8B	8B	.	.	.	.
.	.	.	.	16ggQ	.	.	.	.	.	.	.	.	.	16ggQ	16ggQ
4r	8A	8c	4r	8ff#	8D	.	.	4d	4a	8c	8c	4ryy	4r	8ff#	8ff#
.	8B	8d	.	16ee	8D	.	.	.	.	8d	8d	.	.	16ee	16ee
.	.	.	.	16dd	.	.	.	.	.	.	.	.	.	16dd	16dd
=50	=50	=50	=50	=50	=50	=50	=50	=50	=50	=50	=50	=50	=50	=50	=50
4DD	8c	8e	4f# 4a	4cc'	4D	2.dd]	2.dd	2d	2a	8e	8e	2.r	2.r	4ccc'	4ccc'
.	8d	8f#	.	.	.	.	.	.	.	8f#	8f#	.	.	.	.
4DD	8e	8g	4f# 4a	4cc'	8D	.	.	.	.	8g	8g	.	.	4ccc'	4ccc'
.	8f#	8a	.	.	8D	.	.	.	.	8f#	8f#	.	.	.	.
.	.	.	.	16ccQ	.	.	.	.	.	.	.	.	.	16cccQ	16cccQ
4GGG	4g	4b	4g 4b	8b	4GG	.	.	4g	4b	8g	8g	.	.	8bb	8bb
.	.	.	.	16a	.	.	.	.	.	8B	8B	.	.	16aa	16aa
.	.	.	.	16g	.	.	.	.	.	.	.	.	.	16gg	16gg
=51	=51	=51	=51	=51	=51	=51	=51	=51	=51	=51	=51	=51	=51	=51	=51
4CC	4c	4cc	4e	8a'	4GG	2cc	2ee	4a	4cc	4c	4c	2.r	2.r	8aa'	8aa'
.	.	.	.	8b'	.	.	.	.	.	.	.	.	.	8bb'	8bb'
4ryy	4r	4r	4r	8cc'	4r	.	.	4ryy	4r	4r	4r	.	.	8ccc'	8ccc'
.	.	.	.	8dd'	.	.	.	.	.	.	.	.	.	8ddd'	8ddd'
4DD	4D	4a	4cc	8ee'	4D	4dd	4dd	4d	4a	4D	4D	.	.	8eee'	8eee'
.	.	.	.	8ff#'	.	.	.	.	.	.	.	.	.	8fff#'	8fff#'
=52	=52	=52	=52	=52	=52	=52	=52	=52	=52	=52	=52	=52	=52	=52	=52
8GG'	8G'	8g'	8b'	4gg'	4GG	2.g	2.dd	4G	4g	4G	4G	4gg	4gg	2.ggg	2.ggg
8AA'	8A'	8a'	8cc'	.	.	.	.	.	.	.	.	.	.	.	.
8BB'	8B'	8b'	8dd'	4gg'	4GG	.	.	8G	8g	4g	4g	4ff	4ffn	.	.
8C'	8c'	8cc'	8ee'	.	.	.	.	8G	8g	.	.	.	.	.	.
8D'	8d'	8dd'	8ffn'	4gg'	4GG	.	.	4G	4g	4fn	4fn	4dd	4dd	.	.
8BB'	8B'	8b'	8dd'	.	.	.	.	.	.	.	.	.	.	.	.
=53	=53	=53	=53	=53	=53	=53	=53	=53	=53	=53	=53	=53	=53	=53	=53
*staff:7	*staff:7	*staff:8	*staff:9	*staff:10	*staff:11	*staff:12	*staff:12	*staff:13	*staff:13	*staff:14	*staff:14	*staff:15	*staff:15	*staff:16	*staff:16
8C'	8c'	8cc'	8ee'	4ccc'	4GG	4cc	4ee	4g	4g	4e	4e	8ee	4ee	2.ccc	2.ccc
8BB'	8B'	8b'	8dd'	.	.	.	.	.	.	.	.	8dd	.	.	.
8AA'	8A'	8a'	8cc'	4ccc'	4r	4ryy	4r	8g	8g	4r	4r	8cc	4ccc	.	.
8GG'	8G'	8g'	8b'	.	.	.	.	8g	8g	.	.	8b	.	.	.
8FF#X'	8F#X'	8f#X'	8a'	4ccc'	4D	4ryy	4r	4d	4a	4r	4r	8a	4ccc	.	.
8DD'	8D'	8d'	8f#X'	.	.	.	.	.	.	.	.	8ff#X	.	.	.
=54	=54	=54	=54	=54	=54	=54	=54	=54	=54	=54	=54	=54	=54	=54	=54
4GG	4G	8g'	8b'	8bb'	4GG	2.r	2.r	4g	4b	8B	8B	8gg	8bb	4bb	4bb
.	.	8f#'	8a'	8aa'	.	.	.	.	.	8c	8c	8ff#	8aa	.	.
4r	4r	8e'	8g'	8gg'	4r	.	.	4ryy	4r	8d	8d	8ee	8gg	4r	4r
.	.	8d'	8f#	8ff#'	.	.	.	.	.	8e	8e	8dd	8ff#X	.	.
4BBB	4BB	8c'	8e'	8ee'	4r	.	.	4ryy	4r	8f#X	8f#X	8cc	8ee	4r	4r
.	.	8B'	8d'	8dd'	.	.	.	.	.	8g	8g	8b	8dd	.	.
=55	=55	=55	=55	=55	=55	=55	=55	=55	=55	=55	=55	=55	=55	=55	=55
4CC	4C	4c	8e	8cc	4r	4ryy	4r	4ryy	4r	4c	4c	4a	4cc	4r	4r
.	.	.	8d	8b	.	.	.	.	.	.	.	.	.	.	.
4r	4r	4r	8c	8a	4r	4ryy	4r	4ryy	4r	4r	4r	4ryy	4r	4r	4r
.	.	.	8B	8g	.	.	.	.	.	.	.	.	.	.	.
.	.	.	.	16gQ	.	.	.	.	.	.	.	.	.	16ggQ	16ggQ
4DD	4D	4d	8A	8f#	4D	4dd	4dd	4d	4a	4D	4D	4a	4cc	8ff#	8ff#
.	.	.	8c	16e	.	.	.	.	.	.	.	.	.	16ee	16ee
.	.	.	.	16f#	.	.	.	.	.	.	.	.	.	16ff#	16ff#
=56	=56	=56	=56	=56	=56	=56	=56	=56	=56	=56	=56	=56	=56	=56	=56
4GG	4G	8G	8B	4g'	4GG	4g	4gg	4g	4b	4G	4G	4g	4b	4gg'	4gg'
.	.	8B	8d	.	.	.	.	.	.	.	.	.	.	.	.
4r	4r	8G	8B	4dd'	4r	4ryy	4r	4ryy	4r	4B	4d	4ryy	4r	4ddd'	4ddd'
.	.	8B	8d	.	.	.	.	.	.	.	.	.	.	.	.
.	.	.	.	16gQ	.	.	.	.	.	.	.	.	.	16ggQ	16ggQ
4DD	4D	8c	8c	8f#	4D	4dd	4dd	4d	4a	4A	4c	4f#	4a	8ff#	8ff#
.	.	8A	8d	16e	.	.	.	.	.	.	.	.	.	16ee	16ee
.	.	.	.	16f#	.	.	.	.	.	.	.	.	.	16ff#	16ff#
=57	=57	=57	=57	=57	=57	=57	=57	=57	=57	=57	=57	=57	=57	=57	=57
4GGG	4GG	8G	8B	4g'	4GG	4g	4gg	4g	4b	4G	4B	4g	4b	4gg'	4gg'
.	.	8B	8d	.	.	.	.	.	.	.	.	.	.	.	.
4r	4r	8G	8B	4dd'	4r	4ryy	4r	4ryy	4r	4B	4d	4ryy	4r	4ddd'	4ddd'
.	.	8B	8d	.	.	.	.	.	.	.	.	.	.	.	.
4DD	4D	8c	8c	4d 4a 4ff#	4D	4dd	4dd	4d	4a	4A	4c	4cc	4ff#	4ff#	4ff#
.	.	8A	8d	.	.	.	.	.	.	.	.	.	.	.	.
=58	=58	=58	=58	=58	=58	=58	=58	=58	=58	=58	=58	=58	=58	=58	=58
*>1. ending	*>1. ending	*>1. ending	*>1. ending	*>1. ending	*>1. ending	*>1. ending	*>1. ending	*>1. ending	*>1. ending	*>1. ending	*>1. ending	*>1. ending	*>1. ending	*>1. ending	*>1. ending
4GGG	4GG	4G	4B	4d 4b 4gg	4GG	4g	4gg	4B	4g	4G	4B	4b	4gg	4gg	4gg
4r	4r	4r	4r	4r	4r	4ryy	4r	4ryy	4r	4ryy	4r	4ryy	4r	4r	4r
=59:|	=59:|	=59:|	=59:|	=59:|	=59:|	=59:|	=59:|	=59:|	=59:|	=59:|	=59:|	=59:|	=59:|	=59:|	=59:|
*>2. ending	*>2. ending	*>2. ending	*>2. ending	*>2. ending	*>2. ending	*>2. ending	*>2. ending	*>2. ending	*>2. ending	*>2. ending	*>2. ending	*>2. ending	*>2. ending	*>2. ending	*>2. ending
4GGG	4GG	4G	4B	4d 4b 4gg	4GG	4g	4gg	4B	4g	4G	4B	4b	4gg	4gg	4gg
8.r	8.r	8.r	8.r	8.r	8.r	8.ryy	8.r	8.ryy	8.r	8.ryy	8.r	8.ryy	8.r	8.r	8.r
=60||	=60||	=60||	=60||	=60||	=60||	=60||	=60||	=60||	=60||	=60||	=60||	=60||	=60||	=60||	=60||
*>C	*>C	*>C	*>C	*>C	*>C	*>C	*>C	*>C	*>C	*>C	*>C	*>C	*>C	*>C	*>C
*staff:1	*staff:1	*staff:2	*staff:3	*staff:4	*	*	*	*	*	*	*	*	*staff:5	*	*staff:6
16r	16r	16r	16g	16b	6...ryy	6...ryy	6...ryy	6...ryy	6...ryy	6...ryy	6...ryy	6...ryy	16gg	6...ryy	16bb
4r	4r	4r	8f#`	8a`	.	.	.	.	.	.	.	.	8ff#`	.	8aa`
.	.	.	16r	16r	.	.	.	.	.	.	.	.	16r	.	16r
.	.	.	16g	16b	.	.	.	.	.	.	.	.	16gg	.	16bb
=61	=61	=61	=61	=61	=61	=61	=61	=61	=61	=61	=61	=61	=61	=61	=61
2.r	2.r	2.r	8a`	8cc`	2.ryy	2.ryy	2.ryy	2.ryy	2.ryy	2.ryy	2.ryy	2.ryy	8aa`	2.ryy	8ccc`
.	.	.	16r	16r	.	.	.	.	.	.	.	.	16r	.	16r
.	.	.	16g	16b	.	.	.	.	.	.	.	.	16gg	.	16bb
.	.	.	8f#`	8a`	.	.	.	.	.	.	.	.	8ff#`	.	8aa`
.	.	.	16r	16r	.	.	.	.	.	.	.	.	16r	.	16r
.	.	.	16e	16g	.	.	.	.	.	.	.	.	16ee	.	16gg
.	.	.	8d`	8f#`	.	.	.	.	.	.	.	.	8dd`	.	8ff#`
.	.	.	16r	16r	.	.	.	.	.	.	.	.	16r	.	16r
.	.	.	16c	16e	.	.	.	.	.	.	.	.	16cc	.	16ee
=62	=62	=62	=62	=62	=62	=62	=62	=62	=62	=62	=62	=62	=62	=62	=62
2.GGG	2.GG	4r	2B	4d	2.ryy	2.ryy	2.ryy	2.ryy	2.ryy	2.ryy	2.ryy	2.ryy	2b	2.ryy	4dd
.	.	4d	.	4g	.	.	.	.	.	.	.	.	.	.	4gg
.	.	4B	4d	4b	.	.	.	.	.	.	.	.	4dd	.	4bb
=63	=63	=63	=63	=63	=63	=63	=63	=63	=63	=63	=63	=63	=63	=63	=63
2CC	2C	4G	2e	4e	2.ryy	2.ryy	2.ryy	2.ryy	2.ryy	2.ryy	2.ryy	2.ryy	2ee	2.ryy	4ee
.	.	4e	.	4a	.	.	.	.	.	.	.	.	.	.	4aa
4AAA	4AA	4e	4a	4cc	.	.	.	.	.	.	.	.	4aa	.	4ccc
=64	=64	=64	=64	=64	=64	=64	=64	=64	=64	=64	=64	=64	=64	=64	=64
4DD	4D	4d	4g	4b	2.ryy	2.ryy	2.ryy	2.ryy	2.ryy	2.ryy	2.ryy	2.ryy	4gg	2.ryy	4bb
4r	4r	4r	8f#`	8a	.	.	.	.	.	.	.	.	8ff#`	.	8aa`
.	.	.	16r	16r	.	.	.	.	.	.	.	.	16r	.	16r
.	.	.	16g	16b	.	.	.	.	.	.	.	.	16gg	.	16bb
4r	4r	4r	8f#`	8a`	.	.	.	.	.	.	.	.	8ff#`	.	8aa`
.	.	.	16r	16r	.	.	.	.	.	.	.	.	16r	.	16r
.	.	.	16g	16b	.	.	.	.	.	.	.	.	16gg	.	16bb
=65	=65	=65	=65	=65	=65	=65	=65	=65	=65	=65	=65	=65	=65	=65	=65
2.r	2.r	2.r	8a`	8cc`	2.ryy	2.ryy	2.ryy	2.ryy	2.ryy	2.ryy	2.ryy	2.ryy	8aa`	2.ryy	8ccc`
.	.	.	16r	16r	.	.	.	.	.	.	.	.	16r	.	16r
.	.	.	16g	16b	.	.	.	.	.	.	.	.	16gg	.	16bb
.	.	.	8f#`	8a`	.	.	.	.	.	.	.	.	8ff#`	.	8aa`
.	.	.	16r	16r	.	.	.	.	.	.	.	.	16r	.	16r
.	.	.	16e	16g	.	.	.	.	.	.	.	.	16ee	.	16gg
.	.	.	8d`	16f#`	.	.	.	.	.	.	.	.	8dd`	.	8ff#`
.	.	.	.	8r	.	.	.	.	.	.	.	.	.	.	.
.	.	.	16r	.	.	.	.	.	.	.	.	.	16r	.	16r
.	.	.	16c	16e	.	.	.	.	.	.	.	.	16cc	.	16ee
=66	=66	=66	=66	=66	=66	=66	=66	=66	=66	=66	=66	=66	=66	=66	=66
2GGG	2GG	4r	2B	4d	2.ryy	2.ryy	2.ryy	2.ryy	2.ryy	2.ryy	2.ryy	2.ryy	2b	2.ryy	4dd
.	.	4r	.	4dd	.	.	.	.	.	.	.	.	.	.	4ddd
.	.	.	.	16ddQ	.	.	.	.	.	.	.	.	.	.	16dddQ
4CC	4C	4E	8e	8cc	.	.	.	.	.	.	.	.	8ee	.	8ccc
.	.	.	8c	16b	.	.	.	.	.	.	.	.	8cc	.	16bb
.	.	.	.	16a	.	.	.	.	.	.	.	.	.	.	16aa
=67	=67	=67	=67	=67	=67	=67	=67	=67	=67	=67	=67	=67	=67	=67	=67
2.DD	2.D	2G	2B	2g	2.ryy	2.ryy	2.ryy	2.ryy	2.ryy	2.ryy	2.ryy	2.ryy	2b	2.ryy	2gg
.	.	.	8dQ	.	.	.	.	.	.	.	.	.	8ddQ	.	.
.	.	4F#	4c	8.a	.	.	.	.	.	.	.	.	4cc	.	8.aa
.	.	.	.	16b	.	.	.	.	.	.	.	.	.	.	16bb
=68	=68	=68	=68	=68	=68	=68	=68	=68	=68	=68	=68	=68	=68	=68	=68
4GGG	4GG	4G'	4B'	4g'	4..ryy	4..ryy	4..ryy	4..ryy	4..ryy	4..ryy	4..ryy	4..ryy	4b'	4..ryy	4gg'
8.GG	8.G	8.r	8.r	8.r	.	.	.	.	.	.	.	.	8.r	.	8.r
=69:|	=69:|	=69:|	=69:|	=69:|	=69:|	=69:|	=69:|	=69:|	=69:|	=69:|	=69:|	=69:|	=69:|	=69:|	=69:|
*>D	*>D	*>D	*>D	*>D	*>D	*>D	*>D	*>D	*>D	*>D	*>D	*>D	*>D	*>D	*>D
*staff:7	*staff:7	*staff:8	*staff:9	*staff:10	*	*	*	*	*	*	*	*	*staff:15	*	*staff:16
16ryy	16r	16r	16g	16b	16r	16r	16r	16r	16r	16r	16r	6...ryy	16r	6...ryy	16r
4r	4d	4r	8f#`	8a`	4r	4r	4r	4r	4r	4r	4r	.	4r	.	4r
.	.	.	16r	16r	.	.	.	.	.	.	.	.	.	.	.
.	.	.	16a	16cc	.	.	.	.	.	.	.	.	.	.	.
=70	=70	=70	=70	=70	=70	=70	=70	=70	=70	=70	=70	=70	=70	=70	=70
2.ryy	4G	2.r	4g	4b	2.r	2.r	2.r	2.r	2.r	2.ryy	[2.d	2.r	2.r	2.ryy	2.r
.	8.r	.	4r	8g	.	.	.	.	.	.	.	.	.	.	.
.	.	.	.	16r	.	.	.	.	.	.	.	.	.	.	.
.	16G	.	.	16B	.	.	.	.	.	.	.	.	.	.	.
.	8F#`	.	[4d	8A`	.	.	.	.	.	.	.	.	.	.	.
.	16r	.	.	16r	.	.	.	.	.	.	.	.	.	.	.
.	16A	.	.	16c	.	.	.	.	.	.	.	.	.	.	.
=71	=71	=71	=71	=71	=71	=71	=71	=71	=71	=71	=71	=71	=71	=71	=71
2.ryy	4G	2.r	4d]	4B	2.r	2.r	2.r	2.r	2.r	2.ryy	2.d_	2.r	2.r	2.ryy	2.r
.	4r	.	8.r	8G	.	.	.	.	.	.	.	.	.	.	.
.	.	.	.	16r	.	.	.	.	.	.	.	.	.	.	.
.	.	.	16g	16b	.	.	.	.	.	.	.	.	.	.	.
.	4d	.	8f#`	8a`	.	.	.	.	.	.	.	.	.	.	.
.	.	.	16r	16r	.	.	.	.	.	.	.	.	.	.	.
.	.	.	16a	16cc	.	.	.	.	.	.	.	.	.	.	.
=72	=72	=72	=72	=72	=72	=72	=72	=72	=72	=72	=72	=72	=72	=72	=72
2.ryy	4G	2.r	4g	4b	2.r	2.r	2.r	2.r	2.r	2.ryy	2d]	2.r	2.r	2.ryy	2.r
.	4E	.	4b	4gg	.	.	.	.	.	.	.	.	.	.	.
.	4A	.	4e	4cc#	.	.	.	.	.	.	4g	.	.	.	.
=73	=73	=73	=73	=73	=73	=73	=73	=73	=73	=73	=73	=73	=73	=73	=73
16DD	4D	4r	4f#	8.d 8.dd	8.D	8.dd	8.dd	8.d	8.d	8.r	4f#	4r	4r	2.ryy	8.ddd
8.EE	.	.	.	.	.	.	.	.	.	.	.	.	.	.	.
.	.	.	.	16d 16dd	16D	16dd	16dd	16d	16d	16D	.	.	.	.	16ddd
16FF#	8.r	8.r	8.r	8.d 8.dd	8.D	8.dd	8.dd	8.d	8.d	8.E	8.r	8.r	8.r	.	8.ddd
48ryy	.	.	.	.	.	.	.	.	.	.	.	.	.	.	.
48ryy	.	.	.	.	.	.	.	.	.	.	.	.	.	.	.
48ryy	.	.	.	.	.	.	.	.	.	.	.	.	.	.	.
48ryy	.	.	.	.	.	.	.	.	.	.	.	.	.	.	.
48ryy	.	.	.	.	.	.	.	.	.	.	.	.	.	.	.
48ryy	.	.	.	.	.	.	.	.	.	.	.	.	.	.	.
48ryy	16D	16d	16d	16d 16dd	16D	16dd	16dd	16d	16d	16F#	16D	16dd	16dd	.	16ddd
48ryy	.	.	.	.	.	.	.	.	.	.	.	.	.	.	.
48ryy	.	.	.	.	.	.	.	.	.	.	.	.	.	.	.
48ryy	8.E	8.e	8.e	8.d 8.dd	8.D	8.dd	8.dd	8.d	8.d	48ryy	8.E	8.ee	8.ee	.	8.ddd
48ryy	.	.	.	.	.	.	.	.	.	48ryy	.	.	.	.	.
48ryy	.	.	.	.	.	.	.	.	.	48ryy	.	.	.	.	.
48ryy	.	.	.	.	.	.	.	.	.	48ryy	.	.	.	.	.
48ryy	.	.	.	.	.	.	.	.	.	48ryy	.	.	.	.	.
48ryy	.	.	.	.	.	.	.	.	.	48ryy	.	.	.	.	.
48ryy	.	.	.	.	.	.	.	.	.	48ryy	.	.	.	.	.
48ryy	.	.	.	.	.	.	.	.	.	48ryy	.	.	.	.	.
48ryy	.	.	.	.	.	.	.	.	.	48ryy	.	.	.	.	.
48ryy	16F#	16f#	16f#	16d 16dd	16D	16dd	16dd	16d	16d	48ryy	16F#	16ff#	16ff#	.	16ddd
48ryy	.	.	.	.	.	.	.	.	.	48ryy	.	.	.	.	.
48ryy	.	.	.	.	.	.	.	.	.	48ryy	.	.	.	.	.
!!WARNING: This measure contained too few data records
=74	=74	=74	=74	=74	=74	=74	=74	=74	=74	=74	=74	=74	=74	=74	=74
8.GG	8.G	8.g	8.g	8.d 8.dd	8.D	8.dd	8.dd	8.d	8.d	8.G	8.G	8.gg	8.gg	2.ryy	8.ddd
16FF#	16F#	16f#	16f#	16d 16dd	16D	16dd	16dd	16d	16d	16F#	16F#	16ff#	16ff#	.	16ddd
8.GG	8.G	8.g	8.g	8.d 8.dd	8.D	8.dd	8.dd	8.d	8.d	8.G	8.G	8.gg	8.gg	.	8.ddd
16BB-	16B-	16b-	16b-	16d 16dd	16D	16dd	16dd	16d	16d	16B-	16B-	16bb-	16bb-	.	16ddd
8.AA	8.A	8.a	8.a	8.d 8.dd	8.D	8.dd	8.dd	8.d	8.d	8.A	8.A	8.aa	8.aa	.	8.ddd
16GG	16G	16g	16g	16d 16dd	16D	16dd	16dd	16d	16d	16G	16G	16gg	16gg	.	16ddd
=75	=75	=75	=75	=75	=75	=75	=75	=75	=75	=75	=75	=75	=75	=75	=75
8.FF#X	8.F#X	8.f#X	8.f#X	8.d 8.dd	8.D	8.dd	8.dd	8.d	8.d	8.F#X	8.F#X	8.ff#X	8.ff#X	2.ryy	8.ddd
16EE-	16E-	16e-	16e-	16d 16dd	16D	16dd	16dd	16d	16d	16E-	16E-	16ee-	16ee-	.	16ddd
8.DD	8.D	8.d	8.d	8.d 8.dd	8.D	8.dd	8.dd	8.d	8.d	8.D	8.D	8.dd	8.dd	.	8.ddd
16CC	16C	16c	16c	16d 16dd	16D	16dd	16dd	16d	16d	16C	16C	16cc	16cc	.	16ddd
8.BBB-	8.BB-	8.B-	8.B-	8.d 8.dd	8.D	8.dd	8.dd	8.d	8.d	8.BB-	8.BB-	8.b-	8.b-	.	8.ddd
16AAA	16AA	16A	16A	16d 16dd	16D	16dd	16dd	16d	16d	16AA	16AA	16a	16a	.	16ddd
=76	=76	=76	=76	=76	=76	=76	=76	=76	=76	=76	=76	=76	=76	=76	=76
8.GGG	8.GG	8.G	8.G	8.d 8.dd	8.D	8.dd	8.dd	8.d	8.d	8.GG	8.GG	8.g	8.g	2.ryy	8.ddd
16FFF#	16FF#	16F#	16A	16d 16dd	16D	16dd	16dd	16d	16d	16FF#	16FF#	16f#	16f#	.	16ddd
8.GGG	8.GG	8.G	8.B-	8.d 8.dd	8.D	8.dd	8.dd	8.d	8.d	8.GG	8.GG	8.g	8.g	.	8.ddd
16AAA	16AA	16A	16A	16d 16dd	16D	16dd	16dd	16d	16d	16AA	16AA	16a	16a	.	16ddd
8.BBB-	8.BB-	8.B-	8.B-	8.d 8.dd	8.D	8.dd	8.dd	8.d	8.d	8.BB-	8.BB-	8.b-	8.b-	.	8.ddd
16GGG	16GG	16G	16G	16d 16dd	16D	16dd	16dd	16d	16d	16GG	16GG	16g	16g	.	16ddd
=77	=77	=77	=77	=77	=77	=77	=77	=77	=77	=77	=77	=77	=77	=77	=77
4DD	4D	4d	4d	4d 4dd	4D	4dd	4dd	4d	4d	4D	4D	4dd	4dd	2.ryy	4ddd
4r	4r	4r	8.r	8.r	4r	4r	4r	4r	4r	4r	4r	8.r	8.r	.	8.r
.	.	.	16g	16bn	.	.	.	.	.	.	.	48ryy	16gg	.	16bbn
.	.	.	.	.	.	.	.	.	.	.	.	48ryy	.	.	.
.	.	.	.	.	.	.	.	.	.	.	.	48ryy	.	.	.
4r	4r	4r	8f#`	8a`	4r	4r	4r	4r	4r	4r	4r	48ryy	8ff#`	.	8aa`
.	.	.	.	.	.	.	.	.	.	.	.	48ryy	.	.	.
.	.	.	.	.	.	.	.	.	.	.	.	48ryy	.	.	.
.	.	.	.	.	.	.	.	.	.	.	.	48ryy	.	.	.
.	.	.	.	.	.	.	.	.	.	.	.	48ryy	.	.	.
.	.	.	.	.	.	.	.	.	.	.	.	48ryy	.	.	.
.	.	.	16r	16r	.	.	.	.	.	.	.	48ryy	16r	.	16r
.	.	.	.	.	.	.	.	.	.	.	.	48ryy	.	.	.
.	.	.	.	.	.	.	.	.	.	.	.	48ryy	.	.	.
.	.	.	16g	16b	.	.	.	.	.	.	.	48ryy	16gg	.	16bb
.	.	.	.	.	.	.	.	.	.	.	.	48ryy	.	.	.
.	.	.	.	.	.	.	.	.	.	.	.	48ryy	.	.	.
!!WARNING: This measure contained too few data records
=78	=78	=78	=78	=78	=78	=78	=78	=78	=78	=78	=78	=78	=78	=78	=78
*staff:1	*staff:1	*staff:2	*staff:3	*staff:4	*	*	*	*	*	*	*	*	*staff:5	*	*staff:6
2.r	2.r	2.r	8a`	8cc`	2.ryy	2.ryy	2.ryy	2.ryy	2.ryy	2.ryy	2.ryy	2.ryy	8aa`	2.ryy	8ccc`
.	.	.	16r	16r	.	.	.	.	.	.	.	.	16r	.	16r
.	.	.	16g	16b	.	.	.	.	.	.	.	.	16gg	.	16bb
.	.	.	8f#`	8a`	.	.	.	.	.	.	.	.	8ff#`	.	8aa`
.	.	.	16r	16r	.	.	.	.	.	.	.	.	16r	.	16r
.	.	.	16e	16g	.	.	.	.	.	.	.	.	16ee	.	16gg
.	.	.	8d`	8f#`	.	.	.	.	.	.	.	.	8dd`	.	8ff#`
.	.	.	16r	16r	.	.	.	.	.	.	.	.	16r	.	16r
.	.	.	16c	16e	.	.	.	.	.	.	.	.	16cc	.	16ee
=79	=79	=79	=79	=79	=79	=79	=79	=79	=79	=79	=79	=79	=79	=79	=79
2.GGG	2.GG	4r	2Bn	4d	2.ryy	2.ryy	2.ryy	2.ryy	2.ryy	2.ryy	2.ryy	2.ryy	2bn	2.ryy	4dd
.	.	4d	.	4g	.	.	.	.	.	.	.	.	.	.	4gg
.	.	4Bn	4d	4b	.	.	.	.	.	.	.	.	4dd	.	4bb
=80	=80	=80	=80	=80	=80	=80	=80	=80	=80	=80	=80	=80	=80	=80	=80
2CC	2C	4G	2e	4e	2.ryy	2.ryy	2.ryy	2.ryy	2.ryy	2.ryy	2.ryy	2.ryy	2ee	2.ryy	4ee
.	.	4e	.	4a	.	.	.	.	.	.	.	.	.	.	4aa
4AAA	4AA	4e	4a	4cc	.	.	.	.	.	.	.	.	4aa	.	4ccc
=81	=81	=81	=81	=81	=81	=81	=81	=81	=81	=81	=81	=81	=81	=81	=81
4DD	4D	4d	4g	4b	2.ryy	2.ryy	2.ryy	2.ryy	2.ryy	2.ryy	2.ryy	2.ryy	4gg	2.ryy	4bb
4r	4r	8.r	8f#`	8a`	.	.	.	.	.	.	.	.	8ff#`	.	8aa`
.	.	.	8r	16r	.	.	.	.	.	.	.	.	16r	.	16r
.	.	16G	.	16B	.	.	.	.	.	.	.	.	16g	.	16b
4r	4r	8F#`	8.r	8A`	.	.	.	.	.	.	.	.	8f#`	.	8a`
.	.	16r	.	16r	.	.	.	.	.	.	.	.	16r	.	16r
.	.	16G	16G	16B	.	.	.	.	.	.	.	.	16g	.	16b
=82	=82	=82	=82	=82	=82	=82	=82	=82	=82	=82	=82	=82	=82	=82	=82
2.r	2.r	4A	8A`	8c`	2.ryy	2.ryy	2.ryy	2.ryy	2.ryy	2.ryy	2.ryy	2.ryy	8a`	2.ryy	8cc`
.	.	.	16r	16r	.	.	.	.	.	.	.	.	16r	.	16r
.	.	.	16B	16d	.	.	.	.	.	.	.	.	16b	.	16dd
.	.	4r	8c`	8e`	.	.	.	.	.	.	.	.	8cc`	.	8ee`
.	.	.	16r	16r	.	.	.	.	.	.	.	.	16r	.	16r
.	.	.	16d	16f#	.	.	.	.	.	.	.	.	16dd	.	16ff#
.	.	4r	8e`	8g`	.	.	.	.	.	.	.	.	8ee`	.	8gg`
.	.	.	16r	16r	.	.	.	.	.	.	.	.	16r	.	16r
.	.	.	16f#	16a	.	.	.	.	.	.	.	.	16ff#	.	16aa
=83	=83	=83	=83	=83	=83	=83	=83	=83	=83	=83	=83	=83	=83	=83	=83
4r	4r	2.r	8g`	8b	2.ryy	2.ryy	2.ryy	2.ryy	2.ryy	2.ryy	2.ryy	2.ryy	8gg`	2.ryy	8bb`
.	.	.	16r	16r	.	.	.	.	.	.	.	.	16r	.	16r
.	.	.	16a	16cc	.	.	.	.	.	.	.	.	16aa	.	16ccc
4r	4r	.	8b`	8dd`	.	.	.	.	.	.	.	.	8bb`	.	8ddd`
.	.	.	16r	16r	.	.	.	.	.	.	.	.	16r	.	16r
.	.	.	16cc	16ee	.	.	.	.	.	.	.	.	16ccc	.	16eee
4CC	4C	.	8e`	8cc`	.	.	.	.	.	.	.	.	8aa`	.	8ccc`
.	.	.	16r	16r	.	.	.	.	.	.	.	.	16r	.	16r
.	.	.	16c	16a	.	.	.	.	.	.	.	.	16cc	.	16aa
=84	=84	=84	=84	=84	=84	=84	=84	=84	=84	=84	=84	=84	=84	=84	=84
2.DD	2.D	4B	2B	2g	2.ryy	2.ryy	2.ryy	2.ryy	2.ryy	2.ryy	2.ryy	2.ryy	4b	2.ryy	2gg
.	.	4d	.	.	.	.	.	.	.	.	.	.	4dd	.	.
.	.	.	8dQ	8bQ	.	.	.	.	.	.	.	.	.	.	8bbQ
.	.	4f#	4c	4a	.	.	.	.	.	.	.	.	4ff#	.	4aa
=85	=85	=85	=85	=85	=85	=85	=85	=85	=85	=85	=85	=85	=85	=85	=85
*>1. ending	*>1. ending	*>1. ending	*>1. ending	*>1. ending	*>1. ending	*>1. ending	*>1. ending	*>1. ending	*>1. ending	*>1. ending	*>1. ending	*>1. ending	*>1. ending	*>1. ending	*>1. ending
4GGG	4GG	4g	4B	4g	4..ryy	4..ryy	4..ryy	4..ryy	4..ryy	4..ryy	4..ryy	4..ryy	4gg	4..ryy	4gg
8.GG	8.G	8.r	8.r	8.r	.	.	.	.	.	.	.	.	8.r	.	8.r
=86:|	=86:|	=86:|	=86:|	=86:|	=86:|	=86:|	=86:|	=86:|	=86:|	=86:|	=86:|	=86:|	=86:|	=86:|	=86:|
*>2. ending	*>2. ending	*>2. ending	*>2. ending	*>2. ending	*>2. ending	*>2. ending	*>2. ending	*>2. ending	*>2. ending	*>2. ending	*>2. ending	*>2. ending	*>2. ending	*>2. ending	*>2. ending
4GGG	4GG	4g	4B	4g	2ryy	2ryy	2ryy	2ryy	2ryy	2ryy	2ryy	2ryy	4gg	2ryy	4gg
4GG	4G	4r	4r	4r	.	.	.	.	.	.	.	.	4r	.	4r
==87||	==87||	==87||	==87||	==87||	==87||	==87||	==87||	==87||	==87||	==87||	==87||	==87||	==87||	==87||	==87||
*>E	*>E	*>E	*>E	*>E	*>E	*>E	*>E	*>E	*>E	*>E	*>E	*>E	*>E	*>E	*>E
*-	*-	*-	*-	*-	*-	*-	*-	*-	*-	*-	*-	*-	*-	*-	*-
